X:10
T:The Burren
T:The Beauty Spot
C:Traditional
N:Play 4 Times
N:The Corofin Plain Set, Figure 5, Tune 3 of 3
Z:Gordon Turnbull, Edinburgh
Z:gturnbull@theflow.org.uk
Z:http://www.theflow.org.uk
D:Moher, "Out on the Ocean"
R:Reel
L:1/8
M:C
K:G
B3 A B2 ed | BdAc BE E2 | BAGA Bdef  | gfed Bded |
B3 A B2 ed | BdAc BE E2 | BAGA Bdef  | gfed Bdef |]
g3 e dB ~B2 | dege d2 ed | gfga bgaf | gfed Bdef |
g3 e dB ~B2 | dege d2 ed | gfga bgaf | gfed Bded |]"End" B2 ||
